assets/users.svg

<svg width="90" height="73" viewBox="0 0 90 73" fill="none" xmlns="http://www.w3.org/2000/svg">
<path d="M69.75 31.9375C58.5563 31.9375 49.5 41.1195 49.5 52.4688C49.5 63.818 58.5563 73 69.75 73C80.9437 73 90 63.818 90 52.4688C90 41.1195 80.9437 31.9375 69.75 31.9375ZM78.75 53.367C78.75 54.1227 78.1312 54.75 77.3859 54.75H68.8641C68.1188 54.75 67.5 54.1227 67.5 53.367V42.4455C67.5 41.6898 68.1188 41.0625 68.8641 41.0625H70.6359C71.3812 41.0625 72 41.6898 72 42.4455V50.1875H77.3859C78.1312 50.1875 78.75 50.8148 78.75 51.5705V53.367ZM45 52.4688C45 48.5051 45.9422 44.7553 47.5594 41.4189C46.4344 41.2051 45.2812 41.0625 44.1 41.0625H41.7516C38.6297 42.5168 35.1562 43.3438 31.5 43.3438C27.8438 43.3438 24.3844 42.5168 21.2484 41.0625H18.9C8.46562 41.0625 0 49.6457 0 60.225V66.1562C0 69.9346 3.02344 73 6.75 73H55.5609C49.1906 68.4518 45 60.9521 45 52.4688ZM31.5 36.5C41.4422 36.5 49.5 28.3303 49.5 18.25C49.5 8.16973 41.4422 0 31.5 0C21.5578 0 13.5 8.16973 13.5 18.25C13.5 28.3303 21.5578 36.5 31.5 36.5Z" fill="#008756"/>
</svg>

<svg xmlns="http://www.w3.org/2000/svg" width="90" height="73" fill="none"><path fill="#008756" d="M69.75 31.938c-11.194 0-20.25 9.182-20.25 20.53C49.5 63.819 58.556 73 69.75 73S90 63.818 90 52.469c0-11.35-9.056-20.532-20.25-20.532Zm9 21.429c0 .756-.619 1.383-1.364 1.383h-8.522c-.745 0-1.364-.627-1.364-1.383V42.446c0-.756.619-1.383 1.364-1.383h1.772c.745 0 1.364.627 1.364 1.383v7.742h5.386c.745 0 1.364.627 1.364 1.383v1.796ZM45 52.469c0-3.964.942-7.714 2.56-11.05-1.126-.214-2.279-.356-3.46-.356h-2.348a24.225 24.225 0 0 1-10.252 2.28c-3.656 0-7.116-.826-10.252-2.28H18.9C8.466 41.063 0 49.645 0 60.224v5.931C0 69.935 3.023 73 6.75 73h48.81A25.195 25.195 0 0 1 45 52.469ZM31.5 36.5c9.942 0 18-8.17 18-18.25S41.442 0 31.5 0s-18 8.17-18 18.25 8.058 18.25 18 18.25Z"/></svg>
